X: 337
T: Raymond and Agnes
%R: reel
Z: 2014 John Chambers <jc:trillian.mit.edu>
B: Preston "Twenty four Country Dances for the Year 1798" p.149 #1
F: http://www.vwml.org/browse/browse-collections-dance-tune-books/browse-prestons1798# 2014-8-10
M: C|
L: 1/8
K: D
A |\
dcdA BGAF | Ddfd ceAc |\
dcdA fafd | Bedc d2D H:| f |
edce fd2f | edcB c/d/e Af |\
edce fd2f | edcB cAB"D.C."c |]
% - - - - - - - - - - - - - - - - - - - - - - - - -
%%begintext align
%% hands 3 round with the 2d Lady .| hands 3
%% round with the 2d Gentlemen :| Lead down one
%% Cu | and foot it :|. Right and Left at top :|:
%%endtext
% - - - - - - - - - - - - - - - - - - - - - - - - -

%%sep 1 1 500
%%sep 1 1 500
